X:104
T:Duke of Wellington March
S:John Moore's Book 2
Z:Transcribed by Steve Mansfield 05/2021
%%VWML: Moore2-4494-p81-0
F:http://www.vwml.org/record/Moore2/4494/p81
M:C
L:1/8
K:Bb
B2B>B B2(3cde | d2B>B B2z2 | d2d>d d2(3def | f2d>d d2z2 | 
g2e>e e2b>g | f2d>d d2b>g | d3f gfed | d>cc>c c2z2 | 
B2B>B B2(3cde | d2B>B B2z2 | d2d>d d2(3def | f2d>d d2z2 | 
g2e>e e2b>g | f2d>d d2z2 | f2(3gfe d2c2 | B2B>B B2z2 :|
|: c4 fedc | d4 z2f2 | (f/e/d/e/) cz (e/d/c/d/) Bz | c6z2 | 
B2B>B B2(d/c/B/A/) | B2G>G G2g2 | f2B>c d2c2 | B2B>B B2z2 :| 

